!!!!SEGMENT: pl-kc--40102-iii-1-saf--002-048_zielenski-mikolaj--communiones-totius-anni-motteto-a-5-o-gloriosa-domina.krn
!!!cenid: 16xx:1579
!!!COM: Zieleński, Mikołaj
!!!COM-rismID: pe30013481
!!!CDT: <1611->1611
!!!CNT: Polish
!!!GTL: Communiones totius anni
!!!OTL: Motteto a 5./O gloriosa Domina
!!!OMV: 048
!!!PDT: 1611
!!!AGN: Sacred
!!!YEC: Copyright 2022 Narodowy Instytut Fryderyka Chopina (https://polishscores.org)
!!!YEM: License CC-BY-4.0 (https://creativecommons.org/licenses/by/4.0)
!!!SMS-siglum: PL-Kc
!!!SMS-shelfmark: 40102 III/1 Saf.
!!!SMS-shelfwork: 002-048 G
!!!SMS-variant:
!!!SMS-altvar:
!!!NIFC-rismSourceID: 990069887
!!!NIFC-rismChildID: 990069887
!!!NIFC-islandoraID: none
!!!URL-pdf-islandora:
!!!URL-scan: https://cyfrowe.mnk.pl/dlibra/publication/24235/edition/23926/content?ref=desc @EN{Scan on The National Museum in Krakow Website} @PL{Skany w portalu Biblioteka Cyfrowa Muzeum Narodowego w Krakowie}
!!!IIIF:
!!!ONB-nifc: UWAGA: str. 71. Numer w źródle: 56. Uwaga: W xml metrum 2/1 do źródłowego C| i odpowiednio 3/1 do 3/2
!!!AIN: 5 organ
!!!key: F:lyd
**kern	**kern	**kern	**kern	**kern
*group1	*group1	*group1	*group1	*group1
*part5	*part4	*part3	*part2	*part1
*staff5	*staff4	*staff3	*staff2	*staff1
*I""Organo	*	*	*	*
*Iorgan	*Iorgan	*Iorgan	*Iorgan	*Iorgan
*ICklav	*ICklav	*ICklav	*ICklav	*ICklav
*clefF4	*clefC4	*clefC3	*clefC2	*clefC1
*k[b-]	*k[b-]	*k[b-]	*k[b-]	*k[b-]
*F:lyd	*F:lyd	*F:lyd	*F:lyd	*F:lyd
*M2/1	*M2/1	*M2/1	*M2/1	*M2/1
*met(C|)	*met(C|)	*met(C|)	*met(C|)	*met(C|)
=1	=1	=1	=1	=1
!LO:TX:t=P:problem=all/middle&colon; global	!LO:TX:t=P:problem=all/middle&colon; global	!LO:TX:t=P:problem=all/middle&colon; global	!LO:TX:t=P:problem=all/middle&colon; global	!LO:TX:t=P:problem=all/middle&colon; global
!LO:TX:t=P:problem=all\middle&colon; global	!LO:TX:t=P:problem=all\middle&colon; global	!LO:TX:t=P:problem=all\middle&colon; global	!LO:TX:t=P:problem=all\middle&colon; global	!LO:TX:t=P:problem=all\middle&colon; global
!	!	!	!LO:TX:a:t=O glorioſa Domina.	!LO:TX:a:t=Motteto à 5.
00r	00r	0r	0r	1f
.	.	.	.	1.cc
=2-	=2-	=2-	=2-	=2-
.	.	1r	1c	.
.	.	.	.	2b-\
.	.	1F	[y1f	1a
=3	=3	=3	=3	=3
!	!	!	!LO:N:vis=4:xstem:cue	!
00r	00r	1.c	2f]	1g
.	.	.	2e/	.
.	.	.	1d	2r
.	.	2B-/	.	2g/
=4-	=4-	=4-	=4-	=4-
.	.	1A	2e/	1.cc
.	.	.	4c/	.
.	.	.	4d/	.
.	.	1G	4e/	.
.	.	.	4f\	.
.	.	.	[y2g\	2a\
=5	=5	=5	=5	=5
!	!	!	!LO:N:xstem:cue	!
0r	1r	2.A/	4g]	1a
.	.	.	4f\	.
.	.	.	1f	.
.	.	4B-/	.	.
.	1C	4c/	.	1g
.	.	4G/	.	.
.	.	1c\	2e/	.
=6-	=6-	=6-	=6-	=6-
1FF	1.F	.	1f	2.a\
.	.	2c/	.	.
.	.	.	.	4a\
[y1C	.	2c/	2r	1g
.	2E/	2G/	2c/	.
=7	=7	=7	=7	=7
!LO:N:vis=4:xstem:cue	!	!	!	!
2C]	1D	4A/	2.d/	2r
.	.	4G/	.	.
2BB-/	.	1G	.	2g/
.	.	.	4d/	.
1AA	1C	.	2e/	1.cc
.	.	2F#X/	2A/	.
=8-	=8-	=8-	=8-	=8-
*	*	*lig	*	*
1GG	2r	1G	2.d/	.
.	1D	.	.	2b-\
.	.	.	4e/	.
1D	.	[y1A	4f\	[<1a
.	.	.	4e/	.
.	[<2F/	.	[<2d/	.
*	*	*Xlig	*	*
=9	=9	=9	=9	=9
!	!	!LO:N:vis=4:xstem:cue	!	!
1AA	2F/]	2A]	2d/]	1a]
.	2E/	2A/	2c#X/	.
1D	2D/	2.A/	2d/	1f
.	2d\	.	2a\	.
.	.	4A/	.	.
=10-	=10-	=10-	=10-	=10-
1r	2.B-\	1d	2a\	2r
.	.	.	2g\	2g/
.	8A/	.	.	.
.	8G/	.	.	.
2r	4F/	2r	[y1a	[y1cc
.	4G/	.	.	.
2F\	2A/	2c/	.	.
=11	=11	=11	=11	=11
!	!	!	!LO:N:vis=4:xstem:cue	!LO:N:vis=4:xstem:cue
1.D	2A/	1.f	2a]	2cc]
.	2D/	.	2f\	2b-\
*	*	*	*	*lig
.	1A	.	2d/	1a
2C/	.	2e\	2e/	.
=12-	=12-	=12-	=12-	=12-
1BB-	2r	1.d	0f	1.b-
.	2D/	.	.	.
2BB-/	1.F	.	.	.
*	*	*	*	*Xlig
2FF/	.	2c/	.	2a\
=13	=13	=13	=13	=13
2.C/	.	2c/	2r	2.g/
.	2E/	2G/	2c/	.
4BB-/	.	.	.	4g/
2AA/	2F/	2A/	2c/	1f
2BB-/	2D/	2F/	2d/	.
=14-	=14-	=14-	=14-	=14-
2GG/	2G/	2B-/	2d/	1r
2FF/	2A/	2c/	2f\	.
*custos:C	*custos:G	*custos:c	*custos:f	*custos:cc
!LO:LB:g=original	!LO:LB:g=original	!LO:LB:g=original	!LO:LB:g=original	!LO:LB:g=original
2.C/	1G	(<1c	2f\	2r
.	.	.	2e/	2cc\
4C/	.	.	.	.
=15	=15	=15	=15	=15
1FF	2r	1A)	1f	2cc\
.	2F/	.	.	2cc\
0r	2G/	2d\	0r	2b-\
.	2A/	1f\	.	2a\
=16-	=16-	=16-	=16-	=16-
.	2B-\	.	.	2.g/
.	2c\	2e\	.	.
.	.	.	.	4g/
2r	2.F/	2f\	2r	[<1a
2FF/	.	2c/	2f\	.
.	4G/	.	.	.
=17	=17	=17	=17	=17
2F\	4A/	2c/	2f\	1a]
.	4B-\	.	.	.
2F\	4c\	2c/	2f\	.
.	4A\	.	.	.
2D/	4B-\	2d\	2f\	0r
.	4A\	.	.	.
2C/	1c\	2e\	2g\	.
=18-	=18-	=18-	=18-	=18-
2.G\	.	2.d\	2.g\	.
!	!LO:N:acc=#	!	!	!
.	2Bn\	.	.	.
4G\	.	4d\	4g\	.
2C/	2c\	2e\	2g\	2r
2C/	2G/	2e\	2g\	2cc\
=19	=19	=19	=19	=19
2F\	2A/	2c/	2f\	2cc\
2FF/	2F/	2c/	2a\	2cc\
2BB-/	2F/	2d\	2f\	2b-\
2FF/	2F/	2f\	2a\	2cc\
=20-	=20-	=20-	=20-	=20-
2.C/	2.G/	2f\	2g\	2.cc\
.	.	2e\	2c/	.
4C/	4G/	.	.	4cc\
1FF	1F	1f	1c	1a
=21	=21	=21	=21	=21
00r	1r	1r	1r	1r
.	1F	1f	1a	1cc
=22-	=22-	=22-	=22-	=22-
.	2c\	2e\	2g\	2cc\
.	2F/	2f\	2a\	2cc\
.	1B-	1f	1b-	1dd
=23	=23	=23	=23	=23
2r	2F/	2f\	2a\	1cc
2FF/	2A/	2c/	2f\	.
2C/	2G/	2c/	2e/	0r
2FF/	2A/	2c/	2f\	.
=24-	=24-	=24-	=24-	=24-
1BB-	4F/	1B-	1d	.
.	4D/	.	.	.
.	1G	.	.	.
2C/	.	2A/	2c/	2r
2FF/	2F/	2A/	2c/	2cc\
=25	=25	=25	=25	=25
1C	2F/	2G/	2c/	2cc\
.	2E/	2G/	2g\	2cc\
2FF/	2F/	1.c	1f	1a
1F\	2F/	.	.	.
=26-	=26-	=26-	=26-	=26-
.	2A/	.	2f\	2a\
2C/	2G/	2e\	1g	1cc
2.GG/	2.G/	2.d\	.	.
!	!	!	!	!LO:N:acc=#
.	.	.	2g\	2bn\
4GG/	4G/	4d\	.	.
=27	=27	=27	=27	=27
*M3/1	*M3/1	*M3/1	*M3/1	*M3/1
0C	0G	0e	0g	0cc
1r	1r	1r	1r	1r
=28-	=28-	=28-	=28-	=28-
1C	1c	1e	1g	0.r
1C	1c	1e	1g	.
1F	1c	1f	1a	.
=29-	=29-	=29-	=29-	=29-
0.BB-	0.d	0f	0.b-	00.r
.	.	1f	.	.
=30-	=30-	=30-	=30-	=30-
1FF	1c	0f	1a	.
1C	1.c	.	1.g	.
1C	.	1e	.	.
.	2c\	.	2g\	.
=31	=31	=31	=31	=31
0FF	0c	0f	0a	0.ryy
1r	1r	1r	1r	.
=32-	=32-	=32-	=32-	=32-
0.r	0.r	1f	1a	1cc
.	.	1f	1a	1cc
.	.	1B-	1b-	1dd
=33-	=33-	=33-	=33-	=33-
00.r	00.r	0e-X	0g	0.b-
.	.	1d	1f	.
=34-	=34-	=34-	=34-	=34-
*	*	*lig	*	*
.	.	1f	0f	1a
.	.	1.c	.	1.g
.	.	.	1e	.
*	*	*Xlig	*	*
.	.	2c/	.	2g/
=35	=35	=35	=35	=35
0.ryy	0.ryy	0F	0f	0a
.	.	1r	1r	1r
=36-	=36-	=36-	=36-	=36-
1FF	1F	1A	1f	1cc
1FF	1F	1A	1f	1cc
1BB-	1F	1d	1f	1b-
=37-	=37-	=37-	=37-	=37-
0.FF	0F	0c	0.f	0a
.	1F	1c	.	1a
=38-	=38-	=38-	=38-	=38-
1C	0G	0c	1e	0g
1.GG	.	.	1.d	.
!	!	!LO:N:acc=#	!	!
.	1G	1Bn	.	1g
2GG/	.	.	2d/	.
=39	=39	=39	=39	=39
*M2/1	*M2/1	*M2/1	*M2/1	*M2/1
*met(C|)	*met(C|)	*met(C|)	*met(C|)	*met(C|)
1.C	2G/	2c/	2e/	1g
.	2C/	2c/	2e/	.
.	2.F/	2.A/	1c	2r
2FF/	.	.	.	2a\
.	4G/	4B-/	.	.
=40-	=40-	=40-	=40-	=40-
*	*	*	*	*lig
4FF/	4A/	2.c/	2f\	1cc
4GG/	4B-\	.	.	.
4AA/	1c	.	2f\	.
4BB-/	.	4d\	.	.
*	*	*	*	*col
1C	.	4e\	1e	2.g\
.	.	4f\	.	.
.	2c\	[<2g\	.	.
*	*	*	*	*Xlig
*	*	*	*	*Xcol
.	.	.	.	4a\
=41	=41	=41	=41	=41
*	*lig	*	*	*
2GG/	1B-	2g\]	2d/	4b-\
.	.	.	.	4cc\
2GG/	.	2g\	4d/	2dd\
.	.	.	4e/	.
*lig	*	*	*	*
1C	1.A	1f	4f\	2dd\
.	.	.	4g\	.
.	.	.	2a\	2dd\
*	*Xlig	*	*	*
=42-	=42-	=42-	=42-	=42-
*col	*	*	*	*
2.AA/	.	2e\	2a\	0cc
.	2A/	1c	1f	.
*Xlig	*	*	*	*
*Xcol	*	*	*	*
4BB-/	.	.	.	.
1C	2.G/	.	.	.
.	.	2G/	2e/	.
.	4G/	.	.	.
=43	=43	=43	=43	=43
2FF/	2F/	1c	00f	2a\
1FF	1A	.	.	1cc
.	.	1A	.	.
2FF/	2c\	.	.	2cc\
=44-	=44-	=44-	=44-	=44-
1.BB-	2.d\	2B-/	.	1.b-
.	.	1d	.	.
.	4c\	.	.	.
.	2B-\	.	.	.
2BB-/	2F/	2d\	.	2b-\
=45-	=45-	=45-	=45-	=45-
00FF/	00F/	00c\	00f\	00a\
==	==	==	==	==
*-	*-	*-	*-	*-
!!!system-decoration: g1
!!!RDF**kern: l = terminal long
!!!RDF**kern: > = above
!!!RDF**kern: < = below
!!!ENC: Andrzej Gręziak
!!!END: 2021-12-22
!!!EED: Jędrzej Mróz
!!!EEV: 2021-12-27
